X: 4
T: The Steeplechase
R: reel
M: 4/4
L: 1/8
K: Cmaj
|:D2CD E~G3|Addc dfed|cBcA GAcA|GECE D~G,|
|c ~C3 E~G3|Addc dfed|cBcA GAcA|GEDF EC C2:|
|:c2ec gcea|gedc BcdB|c2ec gcea|gedc BGAB|
c2ec gcea |gedc ABcd |e~g e~a|gede c4:|


Tune 2281	Setting 24897

